packages/core/src/svgs/tokens/branded/BAO.svg

<svg width="24" height="24" viewBox="0 0 24 24" fill="none" xmlns="http://www.w3.org/2000/svg">
<path d="M11.949 21.156C4.0594 21.4338 1.89809 15.9443 2.00364 13.3108C2.14468 11.654 2.73504 10.067 3.71115 8.7208C4.68726 7.37461 6.01212 6.32022 7.54306 5.67118C7.62641 4.83221 8.28758 3.24873 10.2878 3.66544C10.8322 3.03759 12.288 2.15974 13.6992 3.66544C14.6048 3.52098 16.4216 3.721 16.4216 5.67118C19.5498 6.72684 22 10.7939 22 13.4831C22 15.3499 21.8223 20.8171 11.949 21.156Z" fill="#5A261C"/>
<path fill-rule="evenodd" clip-rule="evenodd" d="M2.55865 13.233C2.45863 15.7054 4.49216 20.8615 11.9484 20.6004C20.9715 20.2893 21.3105 15.3609 21.4327 13.5663L21.4437 13.3941C21.5827 11.5606 19.3658 7.12129 16.1711 6.06008V6.03786C15.7223 5.88498 15.2506 5.80982 14.7765 5.81562C15.2248 5.68688 15.6979 5.66972 16.1543 5.76561C16.0155 4.47105 14.9098 4.13769 14.0709 4.13769H14.0764C13.393 4.14323 12.8764 4.78774 12.7041 5.11C12.8319 4.4766 13.1486 4.12101 13.3874 3.95988C12.354 3.04868 11.3317 3.39317 10.7205 3.84877C10.326 4.32103 10.3428 5.07111 10.4261 5.48225C10.2488 5.05506 10.1672 4.59421 10.1872 4.13212C9.9034 4.07477 9.61067 4.08037 9.32936 4.14854C9.04808 4.21669 8.78517 4.34575 8.55922 4.52661C8.10917 4.99332 7.65913 5.98786 8.79813 6.89906C8.47033 6.72126 7.8647 6.36011 7.64246 6.12121C6.23573 6.74256 5.02175 7.7304 4.12744 8.98146C3.23311 10.2325 2.6913 11.7009 2.55865 13.233ZM12.3319 7.01018C12.6083 7.52842 13.0647 7.92761 13.6153 8.1325C12.4929 8.3103 12.293 7.45467 12.3319 7.01018ZM11.7651 6.62125C11.8929 7.09907 11.9539 8.23252 11.1539 8.92702C11.7317 8.70478 12.6596 7.92693 11.7651 6.62125ZM10.115 8.16028C10.476 8.00471 11.1817 7.52689 11.1262 6.84904C11.6151 7.92693 10.6595 8.17139 10.115 8.16028ZM7.83692 15.0554C8.20532 15.0554 8.55862 14.909 8.81911 14.6486C9.0796 14.3881 9.22594 14.0347 9.22594 13.6664C9.22594 13.2979 9.0796 12.9447 8.81911 12.6842C8.55862 12.4236 8.20532 12.2774 7.83692 12.2774C7.46853 12.2774 7.11523 12.4236 6.85474 12.6842C6.59425 12.9447 6.44791 13.2979 6.44791 13.6664C6.44791 14.0347 6.59425 14.3881 6.85474 14.6486C7.11523 14.909 7.46853 15.0554 7.83692 15.0554ZM8.12029 13.9442C8.19418 13.9456 8.26763 13.9324 8.33633 13.9051C8.40503 13.8778 8.46759 13.8371 8.52037 13.7854C8.57315 13.7337 8.61506 13.672 8.64368 13.6038C8.67229 13.5356 8.68702 13.4625 8.68701 13.3886C8.68703 13.3141 8.67214 13.2405 8.64318 13.1721C8.61422 13.1035 8.5718 13.0415 8.51842 12.9897C8.46505 12.9378 8.40182 12.8973 8.33248 12.8704C8.26313 12.8434 8.18908 12.8307 8.11473 12.8329C7.96738 12.8329 7.82606 12.8915 7.72185 12.9957C7.61766 13.0998 7.55912 13.2412 7.55912 13.3886C7.55912 13.4619 7.57367 13.5347 7.60194 13.6025C7.63021 13.6703 7.67163 13.7317 7.72382 13.7835C7.776 13.835 7.83791 13.8759 7.90596 13.9035C7.974 13.9311 8.04686 13.9449 8.12029 13.9442ZM14.7821 13.6664C14.7821 14.0347 14.9283 14.3881 15.1889 14.6486C15.4494 14.909 15.8026 15.0554 16.1711 15.0554C16.5394 15.0554 16.8928 14.909 17.1532 14.6486C17.4137 14.3881 17.5601 14.0347 17.5601 13.6664C17.5601 13.2979 17.4137 12.9447 17.1532 12.6842C16.8928 12.4236 16.5394 12.2774 16.1711 12.2774C15.8026 12.2774 15.4494 12.4236 15.1889 12.6842C14.9283 12.9447 14.7821 13.2979 14.7821 13.6664ZM15.3376 13.3886C15.3376 13.536 15.3962 13.6773 15.5004 13.7814C15.6045 13.8856 15.7458 13.9442 15.8933 13.9442C16.0407 13.9442 16.182 13.8856 16.2861 13.7814C16.3903 13.6773 16.4489 13.536 16.4489 13.3886C16.4489 13.2412 16.3903 13.0998 16.2861 12.9957C16.182 12.8915 16.0407 12.8329 15.8933 12.8329C15.7458 12.8329 15.6045 12.8915 15.5004 12.9957C15.3962 13.0998 15.3376 13.2412 15.3376 13.3886Z" fill="#FFFCF5"/>
<path d="M3.9209 17.3278C5.26547 19.1723 7.74903 20.7503 11.955 20.6058C20.9725 20.2892 21.3115 15.3609 21.4337 13.5662L21.4447 13.3941C21.5115 12.5051 21.0281 11.0161 20.1557 9.58813C20.4836 11.166 20.6613 13.1607 20.1224 14.6219C19.1112 17.3278 17.6223 19.228 12.1995 19.7224C9.23858 19.9773 6.28851 19.1239 3.9209 17.3278Z" fill="#F2E6DA"/>
<path d="M11.9822 14.9443C12.1877 14.9443 12.3544 14.8598 12.3544 14.7554C12.3544 14.6511 12.1877 14.5665 11.9822 14.5665C11.7766 14.5665 11.6099 14.6511 11.6099 14.7554C11.6099 14.8598 11.7766 14.9443 11.9822 14.9443Z" fill="#5A261C"/>
<path d="M11.949 16.4109C10.9156 17.2944 10.0267 16.9109 9.70996 16.6165C9.78775 17.0721 10.3434 17.7889 11.9436 16.9999C12.4991 17.3054 13.7436 17.6555 14.2548 16.6109C13.8992 16.8304 13.4824 16.9293 13.0661 16.8934C12.6497 16.8574 12.2561 16.6882 11.9436 16.4109H11.949Z" fill="#5A261C"/>
</svg>

<svg xmlns="http://www.w3.org/2000/svg" width="24" height="24" fill="none" viewBox="0 0 24 24">
    <path fill="#5A261C" d="M11.949 21.156c-7.89.278-10.05-5.212-9.945-7.845a9.14 9.14 0 0 1 5.54-7.64c.082-.839.744-2.422 2.744-2.006.544-.627 2-1.505 3.411 0 .906-.144 2.723.056 2.723 2.006C19.55 6.727 22 10.794 22 13.483c0 1.867-.178 7.334-10.051 7.673"/>
    <path fill="#FFFCF5" fill-rule="evenodd" d="M2.559 13.233c-.1 2.472 1.933 7.628 9.39 7.367 9.022-.31 9.362-5.24 9.484-7.034l.01-.172c.14-1.833-2.077-6.273-5.272-7.334v-.022a4.2 4.2 0 0 0-1.394-.222 2.86 2.86 0 0 1 1.377-.05c-.139-1.295-1.244-1.628-2.083-1.628h.005c-.683.005-1.2.65-1.372.972.128-.633.445-.989.683-1.15-1.033-.911-2.055-.567-2.667-.111-.394.472-.377 1.222-.294 1.633a3.2 3.2 0 0 1-.239-1.35 1.98 1.98 0 0 0-1.628.395c-.45.466-.9 1.46.24 2.372-.329-.178-.934-.539-1.157-.778a8.58 8.58 0 0 0-5.083 7.112m9.773-6.223c.276.518.733.918 1.283 1.123-1.122.177-1.322-.678-1.283-1.123m-.567-.389c.128.478.189 1.612-.611 2.306.578-.222 1.506-1 .611-2.306m-1.65 1.54c.361-.156 1.067-.634 1.011-1.312.49 1.078-.466 1.322-1.011 1.311m-2.278 6.894a1.39 1.39 0 1 0 0-2.778 1.39 1.39 0 0 0 0 2.778m.283-1.11a.556.556 0 1 0-.005-1.112.556.556 0 1 0 .005 1.111m6.662-.279a1.389 1.389 0 1 0 2.778 0 1.389 1.389 0 0 0-2.778 0m.556-.277a.555.555 0 1 0 1.11 0 .555.555 0 0 0-1.11 0" clip-rule="evenodd"/>
    <path fill="#F2E6DA" d="M3.92 17.328c1.345 1.844 3.829 3.422 8.035 3.278 9.018-.317 9.356-5.245 9.479-7.04l.01-.172c.068-.889-.416-2.378-1.288-3.806.328 1.578.505 3.573-.034 5.034-1.01 2.706-2.5 4.606-7.922 5.1a12 12 0 0 1-8.28-2.394"/>
    <path fill="#5A261C" d="M11.982 14.944c.206 0 .372-.084.372-.189 0-.104-.166-.189-.372-.189-.205 0-.372.085-.372.19 0 .104.167.188.372.188m-.033 1.466c-1.033.884-1.922.5-2.239.206.078.456.633 1.173 2.234.384.555.305 1.8.656 2.31-.39a1.945 1.945 0 0 1-2.31-.2z"/>
</svg>
